svgs/jadrolinija.svg

<svg xmlns="http://www.w3.org/2000/svg" viewBox="0 0 512 512"><path d="M159.213 419.949c1.925-1.667 4.708-3.815 6.184-4.772 6.005-3.892 42.44-37.88 60.862-56.774 20.907-21.443 48.838-56.342 65.324-81.622 17.024-26.104 18.48-29.521 16.055-37.688-3.937-13.255-8.094-14.801-90.668-33.721-9.209-2.11-16.747-4.181-16.75-4.603-.004-.421 39.122-.646 86.945-.5l86.952.266 4.061 3.965c4.415 4.312 6.021 8.485 6.03 15.67.015 13.212-20.74 39.294-59.495 74.765-34.35 31.439-115.584 96.432-154.798 123.85-4.765 3.332-6.957 4.245-10.14 4.223l-4.062-.026Zm83-145.791c0-47.442.185-54.123 1.5-54.123s1.5 6.542 1.5 52.878c0 45.782-.201 53.045-1.5 54.122-1.33 1.104-1.5-4.882-1.5-52.877Zm13-7.196c0-41.436.105-44.053 1.75-43.736 1.629.313 1.768 3.269 2.011 42.707.257 41.723.041 45.102-2.883 45.102-.49 0-.878-19.457-.878-44.073Zm-29.761 36.862c-1.843-2.222-1.328-89.081.522-87.937.989.612 1.204 10.302 1 45.118-.211 35.834-.503 44.047-1.522 42.819Zm43.761-43.666c0-29.665.196-34.123 1.5-34.123 1.303 0 1.5 4.32 1.5 32.878 0 28.004-.222 33.062-1.5 34.122-1.328 1.103-1.5-2.66-1.5-32.877Zm-57.75 28.728c-1.625-1.626-1.839-76.851-.219-76.851.568 0 1.248.564 1.513 1.254.264.689.363 18.261.218 39.05-.209 30.238-.512 37.547-1.512 36.547Zm-14.229-15.812c-.685-1.28-.958-12.66-.785-32.75.228-26.583.469-30.789 1.764-30.789 1.298 0 1.536 4.423 1.764 32.75.257 31.933-.084 35.758-2.743 30.789Zm85.979-20.347c0-19.504.211-22.692 1.5-22.692 2.205 0 2.175 40.523-.032 43.442-1.305 1.725-1.468-.584-1.468-20.75Zm-98.8 7.108c-.908-.907-1.192-15.952-1.168-61.75.027-51.656.247-60.835 1.5-62.491 1.296-1.713 1.468 5.534 1.468 61.75 0 35.03-.135 63.691-.3 63.691-.165 0-.84-.54-1.5-1.2Zm112.882-15.25c-.06-6.572.214-8.654 1.031-7.837 1.898 1.898 2.225 9.495.571 13.293-1.513 3.476-1.521 3.447-1.602-5.456Zm-126.841-.536c-.94-1.504-1.241-12.881-1.241-46.878 0-38.683.208-45.063 1.5-46.136 1.33-1.103 1.5 4.216 1.5 46.878 0 26.467-.117 48.122-.259 48.122-.143 0-.818-.894-1.5-1.986Zm-14.041-15.214c-.88-.88-1.2-9.239-1.2-31.377 0-25.605.227-30.366 1.5-31.423 1.328-1.102 1.5 2.494 1.5 31.378 0 17.942-.135 32.622-.3 32.622-.165 0-.84-.54-1.5-1.2Zm-14-15c-.828-.828-1.2-5.906-1.2-16.377 0-12.271.287-15.416 1.5-16.423 1.324-1.098 1.5.827 1.5 16.378 0 9.692-.135 17.622-.3 17.622-.165 0-.84-.54-1.5-1.2Zm-13.864-15.367c-.331-.862-.092-2.077.531-2.7.844-.844 1.133-.444 1.133 1.567 0 3.009-.749 3.519-1.664 1.133Zm67.664-40.998c0-32.296.417-37.435 3.035-37.435.602 0 .965 13.363.965 35.5 0 34.834-.038 35.5-2 35.5-1.96 0-2-.666-2-33.565Zm14-8.312c0-36.005.21-42.052 1.5-43.123 1.329-1.103 1.5 3.66 1.5 41.878 0 37.664-.19 43.122-1.5 43.122-1.309 0-1.5-5.319-1.5-41.877Zm14-7.5c0-42.671.204-49.547 1.5-50.623 1.33-1.103 1.5 4.494 1.5 49.378 0 44.331-.186 50.622-1.5 50.622-1.313 0-1.5-6.153-1.5-49.377Zm18 11.255c0-33.773.171-37.98 1.5-36.878 2.263 1.878 2.263 75 0 75-1.307 0-1.5-4.902-1.5-38.122Zm13 7.622c0-18.925.366-30.5.965-30.5 2.563 0 3.035 5.04 3.035 32.435 0 27.899-.047 28.565-2 28.565-1.956 0-2-.666-2-30.5Zm14 7.417c0-18.022.274-22.992 1.25-22.667.94.313 1.317 6.033 1.519 23.083.234 19.725.071 22.667-1.25 22.667-1.315 0-1.519-3.104-1.519-23.083Zm14 6.892c0-14.451.158-15.982 1.468-14.25 2.183 2.886 2.212 30.441.032 30.441-1.271 0-1.5-2.465-1.5-16.191Zm14 8.069c0-7.107.188-7.967 1.5-6.878 1.067.886 1.5 3.229 1.5 8.123 0 5.447-.312 6.877-1.5 6.877-1.21 0-1.5-1.569-1.5-8.122Z" fill="#040404"/></svg>

<svg
    xmlns="http://www.w3.org/2000/svg"
    viewBox="0 0 512 512"
    id="vector">
    <g id="group">
        <path
            id="path_6"
            d="M 159.213 419.949 C 161.138 418.282 163.921 416.134 165.397 415.177 C 171.402 411.285 207.837 377.297 226.259 358.403 C 247.166 336.96 275.097 302.061 291.583 276.781 C 308.607 250.677 310.063 247.26 307.638 239.093 C 303.701 225.838 299.544 224.292 216.97 205.372 C 207.761 203.262 200.223 201.191 200.22 200.769 C 200.216 200.348 239.342 200.123 287.165 200.269 L 374.117 200.535 L 378.178 204.5 C 382.593 208.812 384.199 212.985 384.208 220.17 C 384.223 233.382 363.468 259.464 324.713 294.935 C 290.363 326.374 209.129 391.367 169.915 418.785 C 165.15 422.117 162.958 423.03 159.775 423.008 L 155.713 422.982 Z M 242.213 274.158 C 242.213 226.716 242.398 220.035 243.713 220.035 C 245.028 220.035 245.213 226.577 245.213 272.913 C 245.213 318.695 245.012 325.958 243.713 327.035 C 242.383 328.139 242.213 322.153 242.213 274.158 Z M 255.213 266.962 C 255.213 225.526 255.318 222.909 256.963 223.226 C 258.592 223.539 258.731 226.495 258.974 265.933 C 259.231 307.656 259.015 311.035 256.091 311.035 C 255.601 311.035 255.213 291.578 255.213 266.962 Z M 225.452 303.824 C 223.609 301.602 224.124 214.743 225.974 215.887 C 226.963 216.499 227.178 226.189 226.974 261.005 C 226.763 296.839 226.471 305.052 225.452 303.824 Z M 269.213 260.158 C 269.213 230.493 269.409 226.035 270.713 226.035 C 272.016 226.035 272.213 230.355 272.213 258.913 C 272.213 286.917 271.991 291.975 270.713 293.035 C 269.385 294.138 269.213 290.375 269.213 260.158 Z M 211.463 288.886 C 209.838 287.26 209.624 212.035 211.244 212.035 C 211.812 212.035 212.492 212.599 212.757 213.289 C 213.021 213.978 213.12 231.55 212.975 252.339 C 212.766 282.577 212.463 289.886 211.463 288.886 Z M 197.234 273.074 C 196.549 271.794 196.276 260.414 196.449 240.324 C 196.677 213.741 196.918 209.535 198.213 209.535 C 199.511 209.535 199.749 213.958 199.977 242.285 C 200.234 274.218 199.893 278.043 197.234 273.074 Z M 283.213 252.727 C 283.213 233.223 283.424 230.035 284.713 230.035 C 286.918 230.035 286.888 270.558 284.681 273.477 C 283.376 275.202 283.213 272.893 283.213 252.727 Z M 184.413 259.835 C 183.505 258.928 183.221 243.883 183.245 198.085 C 183.272 146.429 183.492 137.25 184.745 135.594 C 186.041 133.881 186.213 141.128 186.213 197.344 C 186.213 232.374 186.078 261.035 185.913 261.035 C 185.748 261.035 185.073 260.495 184.413 259.835 Z M 297.295 244.585 C 297.235 238.013 297.509 235.931 298.326 236.748 C 300.224 238.646 300.551 246.243 298.897 250.041 C 297.384 253.517 297.376 253.488 297.295 244.585 Z M 170.454 244.049 C 169.514 242.545 169.213 231.168 169.213 197.171 C 169.213 158.488 169.421 152.108 170.713 151.035 C 172.043 149.932 172.213 155.251 172.213 197.913 C 172.213 224.38 172.096 246.035 171.954 246.035 C 171.811 246.035 171.136 245.141 170.454 244.049 Z M 156.413 228.835 C 155.533 227.955 155.213 219.596 155.213 197.458 C 155.213 171.853 155.44 167.092 156.713 166.035 C 158.041 164.933 158.213 168.529 158.213 197.413 C 158.213 215.355 158.078 230.035 157.913 230.035 C 157.748 230.035 157.073 229.495 156.413 228.835 Z M 142.413 213.835 C 141.585 213.007 141.213 207.929 141.213 197.458 C 141.213 185.187 141.5 182.042 142.713 181.035 C 144.037 179.937 144.213 181.862 144.213 197.413 C 144.213 207.105 144.078 215.035 143.913 215.035 C 143.748 215.035 143.073 214.495 142.413 213.835 Z M 128.549 198.468 C 128.218 197.606 128.457 196.391 129.08 195.768 C 129.924 194.924 130.213 195.324 130.213 197.335 C 130.213 200.344 129.464 200.854 128.549 198.468 Z M 196.213 157.47 C 196.213 125.174 196.63 120.035 199.248 120.035 C 199.85 120.035 200.213 133.398 200.213 155.535 C 200.213 190.369 200.175 191.035 198.213 191.035 C 196.253 191.035 196.213 190.369 196.213 157.47 Z M 210.213 149.158 C 210.213 113.153 210.423 107.106 211.713 106.035 C 213.042 104.932 213.213 109.695 213.213 147.913 C 213.213 185.577 213.023 191.035 211.713 191.035 C 210.404 191.035 210.213 185.716 210.213 149.158 Z M 224.213 141.658 C 224.213 98.987 224.417 92.111 225.713 91.035 C 227.043 89.932 227.213 95.529 227.213 140.413 C 227.213 184.744 227.027 191.035 225.713 191.035 C 224.4 191.035 224.213 184.882 224.213 141.658 Z M 242.213 152.913 C 242.213 119.14 242.384 114.933 243.713 116.035 C 245.976 117.913 245.976 191.035 243.713 191.035 C 242.406 191.035 242.213 186.133 242.213 152.913 Z M 255.213 160.535 C 255.213 141.61 255.579 130.035 256.178 130.035 C 258.741 130.035 259.213 135.075 259.213 162.47 C 259.213 190.369 259.166 191.035 257.213 191.035 C 255.257 191.035 255.213 190.369 255.213 160.535 Z M 269.213 167.952 C 269.213 149.93 269.487 144.96 270.463 145.285 C 271.403 145.598 271.78 151.318 271.982 168.368 C 272.216 188.093 272.053 191.035 270.732 191.035 C 269.417 191.035 269.213 187.931 269.213 167.952 Z M 283.213 174.844 C 283.213 160.393 283.371 158.862 284.681 160.594 C 286.864 163.48 286.893 191.035 284.713 191.035 C 283.442 191.035 283.213 188.57 283.213 174.844 Z M 297.213 182.913 C 297.213 175.806 297.401 174.946 298.713 176.035 C 299.78 176.921 300.213 179.264 300.213 184.158 C 300.213 189.605 299.901 191.035 298.713 191.035 C 297.503 191.035 297.213 189.466 297.213 182.913 Z"
            fill="#040404"
            stroke-width="1"/>
    </g>
</svg>
